X:163
T:A Dumble Dum Dary. RHu.159
S:R.Hughes MS,1823,Whitchurch,Shrops.
A:Whitchurch, Shropshire
Z:Tony Weatherall 2006
M:6/8
L:1/8
Q:3/8=110
R:Jig
K:C
G|cdc ege|dcd c2z|ege g2g|fef e2:|!
|:e/f/|g2eg2e|g””bg g2g|b2f f2a|gbg e2d|!
cdc e2d|cdc e2d|cdc a2g|d2e c2:|

